X:3579
T:Le bout du monde (Maxou Heintzen)
O:england
M:3/4
L:1/4
K:G
B/c/|dBA|GBd|gec|d2e/f/|gfe|dcB|1 Ad>e|d2B/c/:|2 Aaf|g2||
|:g/a/|b/a/ g/a/ b/a/|e2f/g/|a/g/ f/e/ f/d/2|B3|\
BA/G/ A/B/|cc/B/ c/d/|1ee/d/ e/g/|a2:|2ee/d/ e/f/|g2||


